X:1
T:L'invocazione del sole
T:L'invocazione del sole
T:alle mezza notte in Laponia
T:Georg Joseph Vogler
C:Georg Joseph Vogler
%%score [ 1 2 3 ]
L:1/8
Q:1/4=91
M:2/2
K:C
V:1 treble nm="I"
V:2 treble nm="II"
V:3 treble nm="III"
V:1
"^Patetico"!pp!!<(! e4 e2 e2!<)! |!>(! f6!>)! e2 | f2 e2 d2 c2 |!>(! e4 d2!>)! z2 | %4
w: Lu- ci- do|Dio! per|cui l'a- pril s'in-|fio- ra.|
!<(! e4 e2 e2!<)! |!>(! f4!>)! e2 f2 |!f! g4 e2 f2 | g6 e2 | (f2 e2) d2 c2 |!pp! _e4 d4 | %10
w: Lu- ci- do|Dio! per cui|tut- to nel|mon- do|na- * sce e|muo- re,|
 z2!<(! d2 d2 d2!<)! |!>(! ^f4 f4!>)! | z2!<(! B2 B2 B2!<)! |!>(! ^d4 d4!>)! |!f! e2 ^d2 e2 ^f2 | %15
w: as- col- ta il|can- to,|as- col- ta il|can- to,|ch'ins- pi- rar m'o-|
 g4 ^f2 e2 | =d4 d4 | (d4 A4) | z8 | z8 | z2!pp! B2 B2!<(! B2 | (e4 ^f2) g2!<)! |!f! (B4 d4) | %23
w: no- ra la|mu- sa|mia. _|||Al tuo not-|tur- * no ar-|do- *|
 B8 |:[M:3/4][Q:1/4=134]"^Allegretto" c4 d2 | e2 c2 d2 | e2 d2 z2 | z2!pp! c2 d2 | e2 d2 z!ff! G | %29
w: re.|E là|fredd' e- co|ten- ti,|e- co|ten- ti l'i-|
 d4 c2 | d4 c2 | f2 e2 z2 | z2 z2!pp! c2 | f2 e2 z2 | z2 z2!ff! e2 | (g2 e2) c2 | (f2 d2) B2 | %37
w: ta- li-|ci con-|cen- ti,|con-|cen- ti|dall'|an- * tro|ri- * man-|
 (g6- | g2 f2) e2 | (d2 e2) f2 | c4 (ed) | c6 :| %42
w: dar,|_ _ dall'|an- * tro|ri- man- *|dar.|
V:2
!pp!!<(! G4 G2 G2!<)! |!>(! A6!>)! G2 | A2 G2 F2 E2 |!>(! c4 B2!>)! z2 |!<(! G4 G2 G2!<)! | %5
w: Lu- ci- do|Dio! per|cui l'a- pril s'in-|fio- ra.|Lu- ci- do|
!>(! A4!>)! G2 A2 |!f! _B4 G2 A2 | _B6 B2 | (A2 ^c2) A4 |!pp! c4 =B4 | z2!<(! B2 A2 B2!<)! | %11
w: Dio! per cui|tut- to nel|mon- do|na- * sce e|muo- re|as- col- ta il|
!>(! A4 A4!>)! | z2!<(! G2 ^F2 G2!<)! |!>(! ^F4 F4!>)! |!f! G2 ^F2 G2 B2 | B4 B2 c2 | A4 B4 | %17
w: can- to,|sd- col- ta il|can- to,|ch'in- spi- rar m'o-|no- ra la|mu- sa|
 (A4 ^F4) | z8 | z2!pp! G2 ^F2 G2 | ^D2 G2 ^F2!<(! G2 | (G4 A2) B2!<)! |!f! (G4 ^F4) | G8 |: %24
w: mia. _||Al tuo not-|tur- no, al tuo not-|tur- no ar-|do- *|re.|
[M:3/4] (E2 G2) B2 | c2 G2 B2 | G2 B2 z2 | z2!pp! G2 B2 | G2 B2 z!ff! G | B2 G4 | B2 G4 | %31
w: E _ là|fredd' e- co|ten- ti,|e- co|ten- ti l'i-|ta- li-|ci con-|
 B2 G2 z2 | z2 z2!pp! G2 | B2 G2 z2 | z6 | z6 | z2 z2!ff! G2 | c2 G2 E2 | (G2 AB c2 | A2 G2) F2 | %40
w: cen- ti,|con-|cen- ti|||dall'|an- tro, dall'|an- * * *|* * tro|
 E4 F2 | E6 :| %42
w: ri- man-|dar.|
V:3
!pp!!<(! C4 C2 C2!<)! |!>(! F,6!>)! z2 | z8 |!>(! G,3 G, G,2!>)! z2 |!<(! C4 C2 C2!<)! | %5
w: Lu- ci- do|Dio!||Lu- ci- do,|Lu- ci- do|
!>(! F,4!>)! C2 C2 |!f! C4 C2 C2 | C6 ^C2 | (D2 E2) F2 ^F2 |!pp! G4 G,4 | z2!<(! G2 ^F2 G2!<)! | %11
w: Dio! per cui|tut- to nel|mon- do|na- * sce e|muo- re,|as- col- ta il|
!>(! D4 D4!>)! | z2!<(! E2 ^D2 E2!<)! |!>(! B,4 B,4!>)! |!f! E2 B,2 E2 ^D2 | E4 =D2 C2 | ^F4 G4 | %17
w: can- to,|as- col- ta il|can- to,|ch'in- spi- rar m'o-|no- ra la|mu- sa|
 (^F4 D4) | z2!pp! E2 ^D2 E2 | B,2 E2 ^D2 E2 | B,2 E2 ^D2!<(! E2 | C6 ^C2!<)! |!f! =D8 | G,8 |: %24
w: mia. _|Al tuo no-|tur- no, al tuo not-|tur- no, al tuo not-|tur- no ar-|do-|re.|
[M:3/4] (C2 E2) G2 | C2 E2 G2 | C2 G,2 z2 | z2!pp! E2 G2 | C2 G,2 z!ff! G, | (G2 F2) E2 | %30
w: E _ là|fredd' e- co|ten- ti,|e- co|ten- ti l'i-|ta- * li-|
 (G2 F2) E2 | D2 C2 z2 | z2 z2!pp! E2 | D2 C2 z2 | z2 z2!ff! C2 | (E2 C2) A,2 | (D2 B,2) F2 | %37
w: ci _ con-|cen- ti,|con-|cen- ti|dall'|an- * tro|ri- * man-|
 (E6- | E2 D2) C2 | (F2 E2) D2 | G4 G,2 | C6 :| %42
w: dar,|_ _ dall'|an- * tro|ri- man-|dar.|

